Origami/22x22/apps/zegrapher.svg

<svg width="22" height="22" version="1" xmlns="http://www.w3.org/2000/svg">
 <rect transform="matrix(0,-1,-1,0,0,0)" x="-21" y="-21" width="20" height="20" rx="1" ry="1" style="fill:#49cbc6"/>
 <path d="m3 6v1h7l-6.9609375 9h8.9609375v-1h-7l6.960938-9zm13.427734 3c-1.073643 0-1.914137 0.310112-2.521484 0.927734-0.60428 0.614577-0.90625 1.47155-0.90625 2.574219 0 1.099624 0.30197 1.95855 0.90625 2.576172 0.607382 0.614609 1.447875 0.921875 2.521484 0.921875 0.490799 0 0.952241-0.06292 1.384766-0.189453 0.432524-0.129563 0.828619-0.318306 1.1875-0.568359v-3.242188h-2v1h1v1.65625 2e-3c-0.205528 0.117449-0.357566 0.202526-0.615234 0.259766-0.257657 0.054181-0.550686 0.081984-0.878907 0.081984-0.840478 0-1.471208-0.230458-1.894531-0.691406-0.420257-0.460948-0.632812-0.896793-0.632812-1.806641 0-0.91286 0.212555-1.347645 0.632812-1.808594 0.423323-0.460948 1.054053-0.693359 1.894531-0.693359h2.494141v-1c-0.88736 0.02258-2 0-2.572266 0z" style="fill:#303030"/>
 <path d="m2 1c-0.554 0-1 0.446-1 1v0.5c0-0.554 0.446-1 1-1h18c0.554 0 1 0.446 1 1v-0.5c0-0.554-0.446-1-1-1h-18z" style="fill:#ffffff;opacity:.2"/>
 <path d="m2 21.5c-0.554 0-1-0.446-1-1v-0.5c0 0.554 0.446 1 1 1h18c0.554 0 1-0.446 1-1v0.5c0 0.554-0.446 1-1 1h-18z" style="opacity:.2"/>
</svg>

<svg xmlns="http://www.w3.org/2000/svg" width="22" height="22" version="1">
 <rect style="fill:#49cbc6" width="20" height="20" x="-21" y="-21" rx="1" ry="1" transform="matrix(0,-1,-1,0,0,0)"/>
 <path style="fill:#303030" d="M 3,6 3,7 10,7 3.0390625,16 12,16 12,15 5,15 11.960938,6 Z M 16.427734,9 C 15.354091,9 14.513597,9.310112 13.90625,9.927734 13.30197,10.542311 13,11.399284 13,12.501953 c 0,1.099624 0.30197,1.95855 0.90625,2.576172 C 14.513632,15.692734 15.354125,16 16.427734,16 16.918533,16 17.379975,15.93708 17.8125,15.810547 18.245024,15.680984 18.641119,15.492241 19,15.242188 L 19,12 l -2,0 0,1 1,0 0,1.65625 0,0.002 c -0.205528,0.117449 -0.357566,0.202526 -0.615234,0.259766 C 17.127109,14.972197 16.83408,15 16.505859,15 c -0.840478,0 -1.471208,-0.230458 -1.894531,-0.691406 -0.420257,-0.460948 -0.632812,-0.896793 -0.632812,-1.806641 0,-0.91286 0.212555,-1.347645 0.632812,-1.808594 C 15.034651,10.232411 15.665381,10 16.505859,10 17,10 18,10 19,10 l 0,-1 c -0.88736,0.02258 -2,0 -2.572266,0 z"/>
 <path style="opacity:0.2;fill:#ffffff" d="M 2,1 C 1.446,1 1,1.446 1,2 l 0,0.5 c 0,-0.554 0.446,-1 1,-1 l 18,0 c 0.554,0 1,0.446 1,1 L 21,2 C 21,1.446 20.554,1 20,1 L 2,1 Z"/>
 <path style="opacity:0.2" d="m 2,21.5 c -0.554,0 -1,-0.446 -1,-1 L 1,20 c 0,0.554 0.446,1 1,1 l 18,0 c 0.554,0 1,-0.446 1,-1 l 0,0.5 c 0,0.554 -0.446,1 -1,1 l -18,0 z"/>
</svg>
